X: 1
T: Plug In The Wall, The
M: 6/8
L: 1/8
R: jig
K: Gmaj
G2G BAG|ged edB|~c3 deg|gag efd|
G2G BAG|ged edB|~c3 ege|1 dBA G3:|2 dBA GFE||
DED FAA|def edB|~A3 FAd|AfA def|
DED FAA|def edB|ABA FAd|AFD DAF|
DED FAA|def edB|~A3 FAd|Adf ede|
faf ede|fdB d^cA|BAB edB|AFD cBA|G3z3|
